IMB-X-Files/The-Ambassadors-Assets/660bfaf7ade50abe675253e3_Frame6.svg

<svg fill="none" height="24" viewBox="0 0 24 24" width="24" xmlns="http://www.w3.org/2000/svg"><path d="m6 3h-3v3m15-3h3v3m-15 15h-3v-3m4 0v-1c0-1.3261.52678-2.5979 1.46447-3.5355.93768-.9377 2.20943-1.4645 3.53553-1.4645s2.5979.5268 3.5355 1.4645c.9377.9376 1.4645 2.2094 1.4645 3.5355v1m1 3h3v-3m-9-6c.7956 0 1.5587-.3161 2.1213-.8787s.8787-1.32565.8787-2.1213-.3161-1.55871-.8787-2.12132-1.3257-.87868-2.1213-.87868-1.5587.31607-2.12132.87868c-.56261.56261-.87868 1.32567-.87868 2.12132s.31607 1.5587.87868 2.1213c.56262.5626 1.32572.8787 2.12132.8787z" stroke="#fff" stroke-linecap="square" stroke-width="1.5"/></svg>

<svg width="24" height="24" viewBox="0 0 24 24" fill="none" xmlns="http://www.w3.org/2000/svg">
    <path
        d="M6 3H3V6M18 3H21V6M6 21H3V18M7 18V17C7 15.6739 7.52678 14.4021 8.46447 13.4645C9.40215 12.5268 10.6739 12 12 12C13.3261 12 14.5979 12.5268 15.5355 13.4645C16.4732 14.4021 17 15.6739 17 17V18M18 21H21V18M12 12C12.7956 12 13.5587 11.6839 14.1213 11.1213C14.6839 10.5587 15 9.79565 15 9C15 8.20435 14.6839 7.44129 14.1213 6.87868C13.5587 6.31607 12.7956 6 12 6C11.2044 6 10.4413 6.31607 9.87868 6.87868C9.31607 7.44129 9 8.20435 9 9C9 9.79565 9.31607 10.5587 9.87868 11.1213C10.4413 11.6839 11.2044 12 12 12V12Z"
        stroke="white" stroke-width="1.5" stroke-linecap="square" />
</svg>
